X: 316
T:Teviot Bridge
% Nottingham Music Database
Y:AAB
S:Athole p 134, via EF
M:6/8
K:A
P:A
|:f|"A"ecA E2A|"D"F2A "A"E2A|"A"EFE E2c|"Bm"d2c "E7"B2f|
"A"ecA E2A|"D"F2A "A"E2c|"D"d2f "A"ecA|"E7"B3 "A"A2:|
P:B
|f|"A"ecA Ace|"D"fgf fga|"A"ecA AcA|"E7"BGE E2f|
"A"ecA Ace|"D"agf "A"edc|"D"d2f "A"ecA|"E7"B3 "A"A2f|
"A"ecA Ace|"D"fgf fga|"A"ecA AcA|"E7"BGE E2f|
"A"ece "D"fdf|"D"agf "A"edc|"D"dfa "A"ecA|"E7"B3 "A"A2||


